X:1
T:43
T:Hugo Distler
T:Johannes Kolroß, d. 1558
T:43.  To Build the House Without God's Aid Wo Gott zu Haus nit gibt sein' Gunst Consecration of the House
T:Bärenreiter
T:Bärenreiter
C:Hugo Distler
Z:Johannes Kolroß, d. 1558
Z:Bärenreiter
%%score [ 1 ( 2 3 ) ( 4 5 ) ]
L:1/8
Q:1/4=80
M:4/4
K:F
V:1 treble nm="Soprano"
V:2 treble nm="Alto 1"
V:3 treble 
V:4 treble nm="Alto 2"
V:5 treble 
V:1
 F4 | c2 c2 A2 G2 | A2 B2 !breath!c4 | c2 A4 c2 | B2 c2 A3 G | !breath!F6 c2 | d2 d2 A2 c2 | %7
w: 1. To|build the house with-|out God's aid,|in vain the|build- ers' plans are|laid. If|God neg- lects to|
w: 2. Now|all our chil- dren|are His heirs;|all He has|giv- en us is|theirs; like|ar- rows in a|
w: 3. Now|praise the Fa- ther|and the Son|and Ho- ly|Spi- rit, three in|one, and|let such prais- es|
 B4 B2 A2- | !breath!A2 f2 e2 d2 | c2 d2 (c2 A2- | A2) G2 F4- | F4 |] %12
w: guard the town,|_ in vain the|watch- man's night- *|* ly round.|_|
w: stea- dy hand,|_ so youth is|guid- ed by _|_ God's hand.|_|
w: ev- er be|_ by us sung|in e- ter- *|* ni- ty.|_|
V:2
 z4 | z2 F2 E3 D | C2 D2 F2 F2 | !breath!E2 D2 E2 F2 | (G3 F) =E2 (F2- | FE) D2 !breath!C4 | %6
w: |1. To build the|house with- out God's|aid, in vain the|build- * ers' plans|_ _ are laid.|
w: |2. Now all our|chil- dren are His|heirs; all He has|giv- * en us|_ _ is theirs;|
w: |3. Now praise the|Fa- ther and the|Son and Ho- ly|Spi- * rit, three|_ _ in one,|
 B,2 D4 _E2 | F2 F2 G2 G2 | !breath!F4 c2 B2- | !breath!BB A2 GA G2- | GE D2 (C3 D | F4) |] %12
w: If God neg-|lects to guard the|town, in vain,|_ in vain the watch- man's|_ night- ly round. _|_|
w: like ar- rows|in a stea- dy|hand, so youth,|_ so youth is guid- ed|_ by God's hand. _|_|
w: and let such|prais- es ev- er|be by us,|_ by us sung in e-|* ter- ni- ty. _|_|
V:3
 x4 | x8 | x8 | x8 | x8 | x8 | x8 | x8 | x8 | x8 | x2 D2 C4- | C4 |] %12
V:4
 z4 | z2 [F,F]2 C2 C2 | A,2 G,2 A,2 B,2 | C4 z2 C2 | (_E3 D) C2 B,C | (DC) B,2 !breath!A,4 | %6
w: |1. To build the|house with- out God's|aid, in|vain _ the build- ers'|plans _ are laid.|
w: |2. Now all our|chil- dren are His|heirs; all|He _ has giv- en|us _ is theirs;|
w: |3. Now praise the|Fa- ther and the|Son and|Ho- * ly Spi- rit,|three _ in one,|
 F2 (G3 F) _E2 | D4 F2 _E2- | E_E D4 z2 | z2 F2 _E2 D2 | CC (B,3 A,) G,2 | A,4 |] %12
w: If God _ neg-|lects to guard|_ the town,|in vain the|watch- man's night- * ly|round.|
w: like ar- * rows|in a stea-|* dy hand,|so youth is|guid- ed by _ God's|hand.|
w: and let _ such|prais- es ev-|* er be|by us sung|in e- ter- * ni-|ty.|
V:5
 x4 | x8 | x8 | x8 | x8 | x8 | x8 | x8 | x8 | x8 | x6 G,2 | F,4 |] %12

